assets/icons/tools-generic.svg

<svg width="18px" height="18px" viewBox="0 0 18 18" version="1.1" xmlns="http://www.w3.org/2000/svg" xmlns:xlink="http://www.w3.org/1999/xlink">
    <!-- Generator: Sketch 47.1 (45422) - http://www.bohemiancoding.com/sketch -->
    <desc>Generic toolbar icon - Created with Sketch.</desc>
    <defs></defs>
    <g id="-" stroke="none" stroke-width="1" fill="none" fill-rule="evenodd">
        <g id="intranet.st.5" transform="translate(-243.000000, -233.000000)" fill-rule="nonzero" fill="#FFFFFF">
            <g id="Aside-Left" transform="translate(0.000000, 80.000000)">
                <g id="Group-9" transform="translate(100.000000, 75.000000)">
                    <g id="Group-13" transform="translate(0.000000, 51.000000)">
                        <g id="Group-10">
                            <g id="Group-22" transform="translate(102.000000, 0.000000)">
                                <g id="Group-21" transform="translate(26.000000, 27.000000)">
                                    <g id="Group-Copy" transform="translate(15.000000, 0.000000)">
                                        <path d="M0.638285714,13.7222857 C0.452857143,14.0237143 0.242857143,14.3774286 0.0791428571,14.6571429 C-0.0779254133,14.9248644 0.00744556887,15.2690122 0.271428571,15.4322857 L3.98571429,17.724 C4.11591151,17.8049063 4.27321879,17.8299332 4.42209592,17.7934263 C4.57097304,17.7569194 4.69885772,17.6619592 4.77685714,17.53 C4.92428571,17.2805714 5.11571429,16.9585714 5.32485714,16.6137143 C6.79657143,14.1851429 8.27714286,14.4811429 10.9434286,15.7485714 L14.626,17.4991429 C14.7653932,17.5652554 14.9255961,17.5721955 15.0701844,17.5183852 C15.2147728,17.4645749 15.3314595,17.3545869 15.3937143,17.2134286 L17.1622857,13.22 C17.2879593,12.9362316 17.1641609,12.6040309 16.8834286,12.4717143 C16.1057143,12.106 14.5597143,11.3762857 13.176,10.7062857 C8.14657143,8.27228571 3.89142857,8.43314286 0.638285714,13.7222857 Z" id="Shape"></path>
                                        <path d="M17.2908571,4.36057143 C17.4762857,4.05885714 17.6862857,3.70542857 17.85,3.42685714 C18.0078298,3.15888348 17.9223761,2.81389406 17.6577143,2.65057143 L13.9434286,0.358857143 C13.8132313,0.27795082 13.6559241,0.252923961 13.5070469,0.289430847 C13.3581698,0.325937733 13.2302851,0.420897903 13.1522857,0.552857143 C13.0048571,0.802285714 12.8134286,1.12428571 12.6042857,1.46914286 C11.1325714,3.89771429 9.652,3.60171429 6.98571429,2.33428571 L3.304,0.583714286 C3.16460682,0.517601735 3.00440385,0.51066165 2.85981555,0.56447196 C2.71522725,0.61828227 2.5985405,0.72827026 2.53628571,0.869428571 L0.767714286,4.86171429 C0.642040725,5.1454827 0.765839059,5.47768336 1.04657143,5.61 C1.82428571,5.97571429 3.37028571,6.70542857 4.754,7.37542857 C9.78285714,9.81057143 14.0377143,9.64971429 17.2908571,4.36057143 Z" id="Shape"></path>
                                    </g>
                                </g>
                            </g>
                        </g>
                    </g>
                </g>
            </g>
        </g>
    </g>
</svg>

<svg id="Layer_1" data-name="Layer 1" xmlns="http://www.w3.org/2000/svg" viewBox="0 0 17.93 17.54"><title>tools-generic</title><g id="_-" data-name="-"><g id="intranet.st.5"><g id="Aside-Left"><g id="Group-9"><g id="Group-13"><g id="Group-10"><g id="Group-22"><g id="Group-21"><g id="Group-Copy"><path id="Shape" d="M0.64,13.72l-0.56.93a0.57,0.57,0,0,0,.19.78L4,17.72a0.57,0.57,0,0,0,.79-0.19l0.55-.92c1.47-2.43,3-2.13,5.62-.87l3.68,1.75a0.57,0.57,0,0,0,.77-0.29l1.77-4a0.57,0.57,0,0,0-.28-0.75c-0.78-.37-2.32-1.1-3.71-1.77C8.15,8.27,3.89,8.43.64,13.72Z" transform="translate(0 -0.27)"/><path id="Shape-2" data-name="Shape" d="M17.29,4.36l0.56-.93a0.57,0.57,0,0,0-.19-0.78L13.94,0.36a0.57,0.57,0,0,0-.79.19l-0.55.92C11.13,3.9,9.65,3.6,7,2.33L3.3,0.58a0.57,0.57,0,0,0-.77.29l-1.77,4A0.57,0.57,0,0,0,1,5.61C1.82,6,3.37,6.71,4.75,7.38,9.78,9.81,14,9.65,17.29,4.36Z" transform="translate(0 -0.27)"/></g></g></g></g></g></g></g></g></g></svg>
